src/lib/packages/icons/src/assets/line/sack-dollar.svg

<svg width="24" height="24" viewBox="0 0 24 24" fill="none" xmlns="http://www.w3.org/2000/svg">
<path d="M16.321 6.42505L17.236 4.90002C17.564 4.35202 17.572 3.69296 17.257 3.13696C16.942 2.58096 16.373 2.25 15.735 2.25H8.26501C7.62601 2.25 7.05701 2.58196 6.74301 3.13696C6.42901 3.69296 6.43601 4.35202 6.76501 4.90002L7.67899 6.42505C4.73999 9.13705 3.25 12.019 3.25 15C3.25 16.583 3.881 21.75 12 21.75C20.119 21.75 20.75 16.583 20.75 15C20.75 12.019 19.261 9.13705 16.321 6.42505ZM8.048 3.87598C8.075 3.82898 8.13901 3.75 8.26501 3.75H15.735C15.861 3.75 15.925 3.82998 15.952 3.87598C15.979 3.92298 16.014 4.02005 15.949 4.12805L14.935 5.81897H9.065L8.05099 4.12805C7.98599 4.02005 8.021 3.92398 8.048 3.87598ZM12 20.25C5.457 20.25 4.75 16.579 4.75 15C4.75 12.382 6.165 9.79995 8.935 7.31995H15.065C17.836 9.79995 19.25 12.382 19.25 15C19.25 16.579 18.543 20.25 12 20.25ZM12.818 13.433L11.553 13.114C11.393 13.072 11.257 12.982 11.153 12.847C11.054 12.72 11 12.556 11 12.387C11 11.974 11.325 11.639 11.725 11.639H12.276C12.645 11.639 12.954 11.9251 12.996 12.3051C13.041 12.7171 13.406 13.011 13.824 12.968C14.236 12.923 14.532 12.551 14.487 12.14C14.379 11.163 13.665 10.3969 12.75 10.1949V10C12.75 9.586 12.414 9.25 12 9.25C11.586 9.25 11.25 9.586 11.25 10V10.193C10.251 10.414 9.5 11.312 9.5 12.387C9.5 12.888 9.66699 13.378 9.96399 13.762C10.265 14.157 10.696 14.442 11.182 14.567L12.447 14.886C12.773 14.97 13 15.269 13 15.613C13 15.813 12.923 16.002 12.782 16.145C12.645 16.285 12.465 16.361 12.275 16.361H11.724C11.355 16.361 11.046 16.0749 11.004 15.6949C10.958 15.2829 10.593 14.987 10.176 15.032C9.76399 15.077 9.468 15.449 9.513 15.86C9.621 16.837 10.335 17.6031 11.25 17.8051V18C11.25 18.414 11.586 18.75 12 18.75C12.414 18.75 12.75 18.414 12.75 18V17.807C13.164 17.716 13.545 17.509 13.851 17.198C14.269 16.774 14.5 16.211 14.5 15.614C14.5 14.584 13.81 13.688 12.818 13.433Z" fill="currentColor"/>
</svg>

<svg xmlns="http://www.w3.org/2000/svg" width="24" height="24" fill="none"><path fill="currentColor" d="m16.321 6.425.915-1.525a1.732 1.732 0 0 0 .021-1.763 1.73 1.73 0 0 0-1.522-.887h-7.47c-.639 0-1.208.332-1.522.887A1.732 1.732 0 0 0 6.765 4.9l.914 1.525C4.74 9.137 3.25 12.02 3.25 15c0 1.583.631 6.75 8.75 6.75s8.75-5.167 8.75-6.75c0-2.981-1.489-5.863-4.429-8.575ZM8.048 3.876a.242.242 0 0 1 .217-.126h7.47c.126 0 .19.08.217.126a.242.242 0 0 1-.003.252l-1.014 1.691h-5.87L8.051 4.128a.243.243 0 0 1-.003-.252ZM12 20.25c-6.543 0-7.25-3.671-7.25-5.25 0-2.618 1.415-5.2 4.185-7.68h6.13C17.836 9.8 19.25 12.382 19.25 15c0 1.579-.707 5.25-7.25 5.25Zm.818-6.817-1.265-.319a.731.731 0 0 1-.4-.267.75.75 0 0 1-.153-.46c0-.413.325-.748.725-.748h.551c.369 0 .678.286.72.666a.75.75 0 0 0 1.491-.165 2.237 2.237 0 0 0-1.737-1.945V10a.75.75 0 0 0-1.5 0v.193a2.245 2.245 0 0 0-1.75 2.194c0 .501.167.991.464 1.375.301.395.732.68 1.218.805l1.265.319a.745.745 0 0 1 .553.727c0 .2-.077.389-.218.532a.705.705 0 0 1-.507.216h-.551a.734.734 0 0 1-.72-.666.75.75 0 0 0-1.491.165 2.237 2.237 0 0 0 1.737 1.945V18a.75.75 0 0 0 1.5 0v-.193a2.244 2.244 0 0 0 1.75-2.193c0-1.03-.69-1.926-1.682-2.181Z"/></svg>
